X: 830
T: Roanoke
C:Bill Monroe
B: jims roots
M:4/4
L:1/8
Q: 1/4=100
K:G
V:1 
%Q:520
gg | ga ge =fg fd | dg ed BG GA | ^AG GA =AF FD | G2 G,2 [g2B2D2G,2] GE||
|: "G"DC B,A, G,A, B,C | DE GA BA GE | DC B,A, G,A, B,C | "D"DE GA "G"G2 GE |
DC B,A, G,A, B,C | DE GA BA GB | dg ga ge dc |[1 B"D"D AF "G"G2 GE:| [2 B"D"D AF "G"G4||
|: "G"[ac][bd][bd][bd]- [bd][bd][bd][bd] | [b2d2][a2c2][g4B4] | "C"[d=F][eG][eG][eG]-  [eG][eG][eG][eG] | [e2G2][d2=F2][c4E4] |
"G"[ac][bd][bd][bd]- [bd][bd][bd][bd] | [b2d2][a2c2][g4B4] | "D"DFAd cA_B=B | "G"[G4B4] :|
% abcbook-tune_id 6298c2794d91e894101572be


% abcbook-boost 0
% abcbook-tablature 
% abcbook-transpose 
% abcbook-lastupdated 1654178426977
% abcbook-soundfonts 
% abcbook-repeats 1


